src/icons/github.svg

<svg width="26" height="26" viewBox="0 0 26 26" fill="none" xmlns="http://www.w3.org/2000/svg">
<path d="M13 1C10.6266 1 8.30655 1.70379 6.33316 3.02236C4.35977 4.34094 2.8217 6.21508 1.91345 8.4078C1.0052 10.6005 0.767559 13.0133 1.23058 15.3411C1.6936 17.6689 2.83649 19.807 4.51472 21.4853C6.19295 23.1635 8.33115 24.3064 10.6589 24.7694C12.9867 25.2324 15.3995 24.9948 17.5922 24.0865C19.7849 23.1783 21.6591 21.6402 22.9776 19.6668C24.2962 17.6934 25 15.3734 25 13C25 9.8174 23.7357 6.76515 21.4853 4.51472C19.2348 2.26428 16.1826 1 13 1V1ZM16.1629 22.7834H16.0703C16.0004 22.7873 15.9304 22.7768 15.8646 22.7526C15.7989 22.7284 15.7388 22.6911 15.688 22.6429C15.6411 22.5933 15.6044 22.5349 15.5803 22.471C15.5562 22.4071 15.545 22.3391 15.5474 22.2709V20.8651C15.5543 20.3977 15.5577 19.9257 15.5577 19.4491C15.5562 19.1009 15.5054 18.7546 15.4069 18.4206C15.3135 18.0834 15.1255 17.78 14.8651 17.5463C15.5623 17.4789 16.2475 17.3204 16.9034 17.0749C17.4565 16.8646 17.9568 16.5357 18.3691 16.1114C18.7759 15.6838 19.0786 15.1682 19.2537 14.6046C19.4668 13.9154 19.5681 13.1966 19.5537 12.4754C19.5574 11.9717 19.4691 11.4715 19.2931 10.9994C19.1149 10.5237 18.8452 10.0875 18.4994 9.71543C18.5736 9.5274 18.6277 9.33202 18.6606 9.13257C18.6941 8.93319 18.7108 8.73133 18.7103 8.52914C18.7106 8.26885 18.6807 8.0094 18.6211 7.756C18.5666 7.49655 18.4926 7.24156 18.4 6.99314C18.3645 6.9791 18.3267 6.97212 18.2886 6.97257H18.1789C17.9499 6.97523 17.7227 7.01281 17.5051 7.084C17.2648 7.15368 17.0299 7.24077 16.8023 7.34457C16.5754 7.44613 16.3544 7.56061 16.1406 7.68743C15.9263 7.81428 15.736 7.936 15.568 8.04914C13.8858 7.58028 12.1074 7.58028 10.4251 8.04914C10.2537 7.936 10.0669 7.81428 9.85258 7.68743C9.63596 7.55921 9.41152 7.4447 9.18058 7.34457C8.95336 7.23829 8.71769 7.15114 8.476 7.084C8.26242 7.01328 8.03926 6.9757 7.81429 6.97257H7.70458C7.66702 6.97225 7.62975 6.97924 7.59486 6.99314C7.50044 7.24186 7.42312 7.49674 7.36343 7.756C7.31009 8.01026 7.28309 8.26934 7.28286 8.52914C7.28295 8.73138 7.30016 8.93324 7.33429 9.13257C7.36662 9.33196 7.42006 9.52734 7.49372 9.71543C7.14842 10.0876 6.87935 10.5238 6.70172 10.9994C6.52524 11.4714 6.43635 11.9716 6.43943 12.4754C6.42538 13.1926 6.52371 13.9075 6.73086 14.5943C6.91224 15.1581 7.21407 15.6758 7.61543 16.1114C8.03026 16.5327 8.52986 16.8611 9.08115 17.0749C9.73413 17.3251 10.4181 17.4855 11.1143 17.5514C10.9198 17.7274 10.7654 17.9431 10.6617 18.184C10.563 18.4223 10.4956 18.6724 10.4611 18.928C10.0945 19.1039 9.69349 19.1964 9.28686 19.1989C8.90903 19.2134 8.53632 19.1077 8.22229 18.8971C7.92063 18.674 7.66506 18.3946 7.46972 18.0743C7.38262 17.9395 7.28518 17.8117 7.17829 17.692C7.06536 17.5663 6.94081 17.4515 6.80629 17.3491C6.67374 17.2501 6.52843 17.1693 6.37429 17.1091C6.22243 17.0425 6.05841 17.0081 5.89258 17.008C5.85241 17.0091 5.81234 17.0125 5.77258 17.0183C5.71821 17.0184 5.66408 17.0253 5.61143 17.0389C5.56481 17.051 5.52071 17.0713 5.48115 17.0989C5.46333 17.1087 5.44841 17.1231 5.43788 17.1406C5.42736 17.158 5.42159 17.1779 5.42115 17.1983C5.42551 17.2464 5.44036 17.293 5.46464 17.3347C5.48893 17.3765 5.52206 17.4124 5.56172 17.44C5.65429 17.5143 5.73143 17.5714 5.79315 17.6114L5.82229 17.632C5.95641 17.7349 6.08408 17.846 6.20458 17.9646C6.31733 18.0626 6.41803 18.1736 6.50458 18.2954C6.5951 18.4136 6.67269 18.5412 6.736 18.676C6.80915 18.8097 6.88629 18.964 6.96743 19.1389C7.15489 19.6124 7.48887 20.0137 7.92058 20.284C8.37378 20.5271 8.88243 20.6482 9.39658 20.6354C9.57131 20.6354 9.7459 20.6251 9.91943 20.6046C10.0909 20.5771 10.2623 20.548 10.4337 20.5137V22.2571C10.4368 22.3276 10.425 22.398 10.399 22.4636C10.373 22.5291 10.3334 22.5885 10.2829 22.6377C10.2321 22.6859 10.172 22.7233 10.1062 22.7475C10.0405 22.7716 9.97051 22.7821 9.90058 22.7783H9.83886C7.50698 22.0249 5.52068 20.4638 4.23764 18.376C2.95459 16.2882 2.45912 13.8109 2.84043 11.3902C3.22175 8.96946 4.45479 6.76443 6.31754 5.17215C8.18028 3.57986 10.5503 2.70494 13.0009 2.70494C15.4514 2.70494 17.8214 3.57986 19.6842 5.17215C21.5469 6.76443 22.78 8.96946 23.1613 11.3902C23.5426 13.8109 23.0471 16.2882 21.7641 18.376C20.481 20.4638 18.4947 22.0249 16.1629 22.7783V22.7834Z" fill="white"/>
</svg>

<svg width="26" height="26" xmlns="http://www.w3.org/2000/svg"><path d="M13 1a12 12 0 1 0 0 24 12 12 0 0 0 0-24zm3.163 21.783h-.093a.513.513 0 0 1-.382-.14.515.515 0 0 1-.14-.372v-1.406c.006-.467.01-.94.01-1.416a3.692 3.692 0 0 0-.151-1.028 1.832 1.832 0 0 0-.542-.875 8.014 8.014 0 0 0 2.038-.471 4.051 4.051 0 0 0 1.466-.964c.407-.427.71-.943.885-1.506a6.77 6.77 0 0 0 .3-2.13 4.138 4.138 0 0 0-.26-1.476 3.891 3.891 0 0 0-.795-1.284 2.81 2.81 0 0 0 .162-.582c.033-.2.05-.402.05-.604 0-.26-.03-.52-.09-.773a5.309 5.309 0 0 0-.221-.763.293.293 0 0 0-.111-.02h-.11c-.23.002-.456.04-.674.111a5.15 5.15 0 0 0-.703.26 6.512 6.512 0 0 0-.661.343c-.215.127-.405.249-.573.362a9.578 9.578 0 0 0-5.143 0 13.459 13.459 0 0 0-.572-.362 6.023 6.023 0 0 0-.672-.342 4.516 4.516 0 0 0-.705-.261 2.203 2.203 0 0 0-.662-.111h-.11a.29.29 0 0 0-.11.02 5.844 5.844 0 0 0-.23.763c-.054.254-.08.513-.081.773 0 .202.017.404.051.604.033.199.086.394.16.582A3.888 3.888 0 0 0 6.702 11a4.142 4.142 0 0 0-.263 1.476 6.871 6.871 0 0 0 .292 2.12c.181.563.483 1.08.884 1.516.415.422.915.75 1.466.964.653.25 1.337.41 2.033.476a1.828 1.828 0 0 0-.452.633 2.99 2.99 0 0 0-.2.744 2.753 2.753 0 0 1-1.175.27 1.788 1.788 0 0 1-1.065-.3 2.904 2.904 0 0 1-.752-.824 3.1 3.1 0 0 0-.292-.382 2.692 2.692 0 0 0-.372-.343 1.842 1.842 0 0 0-.432-.24 1.201 1.201 0 0 0-.481-.101c-.04.001-.08.005-.12.01a.649.649 0 0 0-.162.02.406.406 0 0 0-.13.06.116.116 0 0 0-.06.1.33.33 0 0 0 .14.242c.093.074.17.131.232.171l.03.021c.133.103.261.214.382.333.112.098.213.209.3.33.09.119.168.246.231.381.073.134.15.288.231.463.188.473.522.875.954 1.145.453.243.961.364 1.476.351.174 0 .349-.01.522-.03.172-.028.343-.057.515-.091v1.743a.5.5 0 0 1-.533.521h-.062a10.286 10.286 0 1 1 6.324 0v.005z"/></svg>
